images_sukapura_svg/cmd/sc_connectorlinescirclestart.svg

<svg viewBox="0 0 16 16" xmlns="http://www.w3.org/2000/svg" xmlns:xlink="http://www.w3.org/1999/xlink"><linearGradient id="a" gradientTransform="translate(-29.694915 1.220339)" gradientUnits="userSpaceOnUse" x1="14" x2="13.79661" y1="22" y2="2.135593"><stop offset="0" stop-color="#0040dd"/><stop offset="1" stop-color="#0a84ff"/></linearGradient><linearGradient id="b" gradientUnits="userSpaceOnUse" x1="9" x2="9" xlink:href="#a" y1="13" y2="3"/><linearGradient id="c" gradientTransform="translate(-10 -9)" gradientUnits="userSpaceOnUse" x1="13" x2="13" xlink:href="#a" y1="15" y2="11"/>
/&amp;amp;gt;<g fill="#4d82b8"><g fill="url(#b)"><path d="m3 3h3.335576v1h-3.335576z"/><path d="m10 12h3v1h-3z"/><path d="m5.65625 3 3.8085938 10h1.0703122l-.068359-.177734-3.7421876-9.822266z"/></g><path d="m5 4a2 2 0 0 1 -2 2 2 2 0 0 1 -2-2 2 2 0 0 1 2-2 2 2 0 0 1 2 2z" fill="url(#c)"/></g></svg>

<?xml version="1.0" encoding="UTF-8" standalone="no"?>
<svg
   xmlns:dc="http://purl.org/dc/elements/1.1/"
   xmlns:cc="http://creativecommons.org/ns#"
   xmlns:rdf="http://www.w3.org/1999/02/22-rdf-syntax-ns#"
   xmlns:svg="http://www.w3.org/2000/svg"
   xmlns="http://www.w3.org/2000/svg"
   xmlns:xlink="http://www.w3.org/1999/xlink"
   xmlns:sodipodi="http://sodipodi.sourceforge.net/DTD/sodipodi-0.dtd"
   xmlns:inkscape="http://www.inkscape.org/namespaces/inkscape"
   viewBox="0 0 16 16"
   version="1.1"
   id="svg20"
   sodipodi:docname="sc_connectorlinescirclestart.svg"
   inkscape:export-filename="D:\Rizmut\libreoffice-style-sukapura-master\images_sukapura\cmd\sc_connectorlinescircleend.png"
   inkscape:export-xdpi="96"
   inkscape:export-ydpi="96"
   inkscape:version="0.92.3 (2405546, 2018-03-11)"><metadata
   id="metadata26">
  <rdf:RDF>
    <cc:Work
       rdf:about="">
      <dc:format>image/svg+xml</dc:format>
      <dc:type
         rdf:resource="http://purl.org/dc/dcmitype/StillImage" />
      <dc:title></dc:title>
    </cc:Work>
  </rdf:RDF>
</metadata>
<defs
   id="defs24">
  <linearGradient
     gradientTransform="translate(-29.694915,1.220339)"
     id="a-6"
     gradientUnits="userSpaceOnUse"
     x1="14"
     x2="13.79661"
     y1="22"
     y2="2.1355929">
    <stop
       offset="0"
       stop-color="#0040dd"
       id="stop2" />
    <stop
       offset="1"
       stop-color="#0a84ff"
       id="stop4" />
  </linearGradient>
  <linearGradient
     inkscape:collect="always"
     xlink:href="#a-6"
     id="linearGradient924"
     x1="9"
     y1="13"
     x2="9"
     y2="3"
     gradientUnits="userSpaceOnUse" />
  <linearGradient
     inkscape:collect="always"
     xlink:href="#a-6"
     id="linearGradient926"
     x1="9"
     y1="13"
     x2="9"
     y2="3"
     gradientUnits="userSpaceOnUse" />
  <linearGradient
     inkscape:collect="always"
     xlink:href="#a-6"
     id="linearGradient928"
     x1="9"
     y1="13"
     x2="9"
     y2="3"
     gradientUnits="userSpaceOnUse" />
  <linearGradient
     inkscape:collect="always"
     xlink:href="#a-6"
     id="linearGradient3313"
     gradientUnits="userSpaceOnUse"
     x1="13"
     y1="15"
     x2="13"
     y2="11"
     gradientTransform="translate(-10,-9)" />
</defs>
<sodipodi:namedview
   pagecolor="#ffffff"
   bordercolor="#666666"
   borderopacity="1"
   objecttolerance="10"
   gridtolerance="10"
   guidetolerance="10"
   inkscape:pageopacity="0"
   inkscape:pageshadow="2"
   inkscape:window-width="1366"
   inkscape:window-height="716"
   id="namedview22"
   showgrid="true"
   inkscape:zoom="20.85965"
   inkscape:cx="15.234335"
   inkscape:cy="3.4247561"
   inkscape:window-x="-8"
   inkscape:window-y="-8"
   inkscape:window-maximized="1"
   inkscape:current-layer="g18">
  <inkscape:grid
     type="xygrid"
     id="grid895" />
</sodipodi:namedview>
/&amp;gt;<g
   fill="#4d82b8"
   id="g18">
  <path
     inkscape:connector-curvature="0"
     d="M 3,3 H 6.335576 V 4 H 3 Z"
     id="path2"
     style="fill-opacity:1;fill:url(#linearGradient924)" />
  <path
     inkscape:connector-curvature="0"
     d="m 10,12 h 3 v 1 h -3 z"
     id="path4"
     style="fill-opacity:1;fill:url(#linearGradient926)" />
  <path
     inkscape:connector-curvature="0"
     d="M 5.65625,3 9.4648438,13 H 10.535156 L 10.466797,12.822266 6.7246094,3 Z"
     id="path6"
     style="fill-opacity:1;fill:url(#linearGradient928)" />
  <path
     id="path3311"
     d="M 5,4 A 2,2 0 0 1 3,6 2,2 0 0 1 1,4 2,2 0 0 1 3,2 2,2 0 0 1 5,4 Z"
     style="fill:url(#linearGradient3313);fill-opacity:1;stroke:none"
     inkscape:connector-curvature="0" />
</g>
</svg>
